!!!!SEGMENT: pl-wtm--r-419-m_moniuszko-stanislaw-co-mowia-obloki-o-ksiezycu.krn
!!!cenid: 18xx:2941
!!!COM: Moniuszko, Stanisław
!!!COM-rism: pe30008351
!!!CDT: 1819/05/05-1872/06/04
!!!CNT: Polish
!!!OTL: Co mówią obłoki o księżycu
!!!PDT: 1850
!!!AGN:
!!!SMS-siglum: PL-Wtm
!!!SMS-shelfmark: R 419/M
!!!NIFC-rismID: 1001086425
!!!URL-scan: http://repozytorium.nifc.pl/skany/pl-wtm-nut--r419m
!!!ONB-nifc:
!!!SMS-variant:
!!!SMS-altvar:
**kern	**kern	**dynam
*part2	*part1	*part1
*staff2	*staff1	*
*clefF4	*clefF4	*
*k[b-e-a-d-g-]	*k[b-e-a-d-g-]	*
*M3/4	*M3/4	*
=1	=1	=1
*^	*^	*
*all/right	*all/right	*	*	*
*	*	*ped	*	*
!	!	!LO:TX:b:i:t=una corda	!	!
!	!	!LO:TX:a:i:t=Molto tranquillo e molto moderato.	!	!
2.rGG	2.r	2.rCC	[>2.G-/	ppp
=2	=2	=2	=2	=2
!	!	!	!LO:TX:b:i:t=legatiſsimo.	!
[2.BB-/	2.r	2.rCC	2.G-/_>	.
=3	=3	=3	=3	=3
*	*2\right	*	*	*
2.BB-/_	[2.EE-\	2.rCC	2.G-/_>	.
=4	=4	=4	=4	=4
*	*	*2\right	*	*
2.BB-/]	2.EE-\]	2.D-\	2.G-/]	.
=5	=5	=5	=5	=5
*	*	*Xped	*	*
[2.AA-/	(4EE-\	(4G-/	4C\	.
.	4DD-\	4F/	4D-\	.
.	4GG-\	4E-/	4C\	.
=6	=6	=6	=6	=6
*	*	*	*^	*
2.AA-/]	4FF\	2A-/	(>4A-\	2.D-\	.
.	4EE-\	.	4G-\	.	.
.	4DD-\	4A-/	4F\)	.	.
*v	*v	*	*	*	*
*	*	*v	*v	*
=7	=7	=7	=7
4GG-/	4B-/ 4G-/	2.D-\	.
4DD-/	4d-/ 4A-/ 4F/	.	.
4GG-/	4B-/ 4G-/	.	.
=8	=8	=8	=8
4DD-/	2.A-/	4F\ 4D-\	.
4AAA-/	.	4E-\ 4C\	.
4DD-/	.	4F\ 4D-\	.
=9	=9	=9	=9
*	*	*^	*
4CC/	4A-/	2.A-\	4E-\	.
4DD-/	4B-/	.	4F\	.
4EE-/	4c/	.	4G-\	.
=10	=10	=10	=10	=10
4FF/	4d-/	2.A-/	4F\	.
4AA-/	4e-/	.	4E-\	.
[4D-/	4f/	.	4ryy	.
*	*	*v	*v	*
=11	=11	=11	=11
*^	*	*	*
4F-X/	4D-\]	4B-/	4Gn\	.
4E-/	4C\	4An/	2G-X\	.
4D-/	4BB-\	4B-/	.	.
=12	=12	=12	=12	=12
2.C/ 2.AAn/	4r	2.c/	4F\	.
.	4GG-X\	.	4E-\	.
.	4FF\	.	4F\	.
!!LO:LB:g=original
=13	=13	=13	=13	=13
4AAn/	[2.EE-\	4e-/	2.G-\	.
4BB-/	.	4d-/	.	.
4C/	.	4c/	.	.
=14	=14	=14	=14	=14
4D-/	2.EE-\_	4B-/	2G-\	.
8C/L	.	4An/	.	.
8BB-/J	.	.	.	.
4AAn/)	.	4f/	4F\	.
*v	*v	*	*	*
=15	=15	=15	=15
4BB-/ 4EE-/]	4e-/	2.Gn\	.
(<4F^/	4d-/	.	.
8E-/L	4B-/	.	.
8D-/J	.	.	.
=16	=16	=16	=16
4C/	4f/	2A-\	.
4C-X/	4e-/)	.	.
4BB-/	(4g-X/ 4e-/	4G-X\	.
=17	=17	=17	=17
*	*	*^	*
4AAn/	2f/	(>4e-\	2F\	.
4BB-/	.	[2d-\)	.	.
4AA-X/	4f-X/	.	4F-X\	.
=18	=18	=18	=18	=18
4GG-/	2e-/	4d-\]	2E-\	.
!	!LO:TX:b:t=c	!	!	!
4AA-/	.	4c\	.	.
4DDn/	4f/	4c-X\ 4A-\	4ryy	.
*	*	*v	*v	*
=19	=19	=19	=19
4EE-/	4g-/	4B-\ 4G-\	.
4FF/	4f/ 4d-/	4A-\	.
4BB-/	4d-/	4G-\ 4D-\	.
=20	=20	=20	=20
4AA-/	2.A-/ 2.F/	4D-\	.
4FF/	.	4C\	.
4DD-/	.	4D-\	.
*	*v	*v	*
=21	=21	=21
*k[f#c#g#d#]	*k[f#c#g#d#]	*
4GGG#/	4G#/ 4D#/ 4BB#X/	.
4CC#/	4G#/ 4E#X/ 4C#/	.
4BBB/	4G#/ 4D#/ 4BB#/	.
=22	=22	=22
*	*^	*
4CC#/	2G#/ 2En/)	4C#\	.
4EE/	.	4BBn\	.
4CC#/	(4G#/ 4E/	4C#\	.
!!LO:PB:g=original
=23	=23	=23	=23
4AAAn/	4An/	4E\ 4C#\	.
4CC#/	4c#/	4A\ 4E\	.
4EE/	4B/	4G#\ 4E\	.
=24	=24	=24	=24
4AA/	2c#/	2.A\ 2.E\	.
4AAA/	.	.	.
4CC#/	4A/	.	.
=25	=25	=25	=25
4EE/	4B/	4G#\ 4E\	.
4BBB/	4B/	4F#\ 4D#\	.
4EE/	4B/	4G#\ 4E\	.
=26	=26	=26	=26
4BBB/	2B/	2.F#\ 2.D#\	.
4BB/	.	.	.
4AA/	4B/	.	.
=27	=27	=27	=27
4GG#/	4B/	4E\	<
4EE/	4e/	4B\ 4G#\	.
4BB/	4d#/	4B\ 4F#\	.
=28	=28	=28	=28
*	*	*^	*
4FF#/	2.f#/)	4c#\	4A#X\	.
*	*	*	*2\left	*
4CCn/	.	4c##X\	2A#\	[
4BBB/	.	4d#\	.	.
=29	=29	=29	=29	=29
4EE/	(4e/	4G#\	2.ryy	>
4FF#/	4d#/	4A\	.	.
4FF##X/	4c#/ 4A#X/	4E\	.	.
*	*	*v	*v	*
=30	=30	=30	=30
*	*	*2\right	*
4GG#/	4.B#X/	2.D#\	.
4AA#X/	.	.	.
.	8A#X/	.	.
4BB/	4G#/)	.	]]
*	*v	*v	*
=31	=31	=31
*k[b-e-a-d-g-]	*k[b-e-a-d-g-]	*
*	*^	*
!	!	!	!LO:DY:rj
4D-/ 4DD-/	(4f-X/	4A-\	ppp
4GG-/	4e-/	4B--\	.
!	!	!LO:N:n=2:acc=n-	!
4GGn/	4d-/	4B-\ [4E-\	.
=32	=32	=32	=32
4AA-/	4.c/	2.E-\]	.
4BB-/	.	.	.
.	8B-/	.	.
4C/	4A-/	.	.
!!LO:LB:g=original
=33	=33	=33	=33
4D-/	4B-/	2.E-\	.
4C/	4A-/	.	.
4BB-/	4d-/	.	.
=34	=34	=34	=34
4AA-/	4.c/	2.E-\	.
4D-/	.	.	.
.	8B-/	.	.
4C/	4A-/	.	.
=35	=35	=35	=35
4BB-/	4d-/	2.G-\	.
4AA-/	4c/	.	.
4D-/)	4f/	.	.
=36	=36	=36	=36
*	*	*ped	*
2C/ 2EE-/ 2AAA-;/	4.e-;/	2G-\	.
.	8c/L	.	.
*	*	*Xped	*
4r	8A-/	4r	.
.	8Gn/J	.	.
*	*v	*v	*
=37	=37	=37
*^	*	*
[2.AA-/	(4EE-\	(>4G-X/ 4C/)	.
.	4DD-\	4F/ 4D-/	.
.	4GG-\	4E-/ 4C/	.
=38	=38	=38	=38
*	*	*^	*
*	*	*	*^	*
2.AA-/]	4FF\	2A-/	4A-\	2.D-\	.
.	4EE-\	.	4G-\	.	.
.	4DD-\	4A-/	4F\	.	.
*v	*v	*	*	*	*
*	*	*v	*v	*
=39	=39	=39	=39
4GG-/	4B-/ 4G-/	2.D-\	.
4DD-/	4d-/ 4A-/ 4F/	.	.
4GG-/	4B-/ 4G-/	.	.
=40	=40	=40	=40
4DD-/	2.A-/	4F\ 4D-\	.
4AAA-/	.	4E-\ 4C\	.
4DD-/	.	4F\ 4D-\	.
=41	=41	=41	=41
*^	*	*^	*
!	!	!LO:TX:a:t=as	!	!	!
[2.AA-/	4CC\	4A-/	2G-\	4E-\	.
.	4DD-\	4B-/	.	4F\	.
.	4EE-\	4c/	4A-\	4G-\	.
=42	=42	=42	=42	=42	=42
4AA-/]	4FF\	4d-/	2A-\	4F\	.
2ryy	4AA-\	4e-/	.	4E-\	.
.	[<4D-\	4f/	4ryy	4ryy	.
*	*	*	*v	*v	*
=43	=43	=43	=43	=43
4F-X/	4D-\]	4B-/	4Gn\	.
4E-/	4C\	4An/	[2G-X\	.
4D-/	4BB-\	4B-/	.	.
=44	=44	=44	=44	=44
2.C/ 2.AAn/	4r	2.c/	4G-\]	.
.	4GG-X\	.	4E-\	.
.	4FF\	.	4F\	.
!!LO:PB:g=original
=45	=45	=45	=45	=45
4AAn/	[2.EE-\	4e-/	[2.G-\	.
4BB-/	.	4d-/	.	.
4C/	.	4c/	.	.
=46	=46	=46	=46	=46
4D-/	2.EE-\_	4B-/	2G-\]	.
8C/L	.	4An/	.	.
8BB-/J	.	.	.	.
4AAn/	.	4f/	4F\	.
=47	=47	=47	=47	=47
4BB-/	2.EE-\]	4e-/	2.Gn\	.
4F^</	.	4d-/	.	.
8E-/L	.	4B-/	.	.
8D-/J	.	.	.	.
=48	=48	=48	=48	=48
4C/	[2.EE-\	4f/	2A-\	.
4C-X/	.	4e-/)	.	.
4BB-/	.	(4g-X/ 4e-/	4G-X\	.
=49	=49	=49	=49	=49
*	*	*	*^	*
4AAn/	2.EE-\]	2f/	2F\	4e-\	.
4BB-/	.	.	.	[<2d-\	.
4AA-X/	.	4f-X/	4F-X\	.	.
=50	=50	=50	=50	=50	=50
4GG-/	2EE-\	2e-/	2E-\	4d-\]	.
4AA-/	.	.	.	4c\	.
4DDn/	4ryy	4f/	4A-\	4c-X\	.
*v	*v	*	*	*	*
*	*	*v	*v	*
=51	=51	=51	=51
!	!LO:TX:b:i:t=ralent.	!	!
4EE-/	4g-/	4B-\ 4G-\	>
4FF/	4f/ 4d-/	4A-\	.
4BB-/	4d-/	4G-\ 4D-\	.
=52	=52	=52	=52
2.AA-/	2A-/	4F\ 4D-\	.
.	.	4D-\ 4BB-\	.
.	4A-/	4E-\ 4C\	.
=53	=53	=53	=53
*	*	*ped	*
!	!	!	!LO:DY:t=pppp..
(<2.GG-;/)	2.B-/ 2.G-;/)	2.D-\	pppp
.	.	.	.
*	*	*Xped	*
.	.	.	.
=54	=54	=54	=54
4FF/	(2.c-X/ 2.A-/	4Dn\	.
4GG-/	.	4E-\	.
4FF-X/	.	4F-X\	.
=55	=55	=55	=55
4DDn/	2B-/	4A-\ 4Fn\	.
4EE-/	.	2G-\ 2E-\	.
4AAAn/	4cn/	.	.
!!LO:LB:g=original
=56	=56	=56	=56
!	!LO:TX:b:i:t=ralent.	!	!
4BBB-/	4d-/ 4F/	4D-\	>
4CC/	4c/	4E-\	.
4FF/	4A-/	4D-\	.
=57	=57	=57	=57
*^	*	*	*
4AA-/	2.EE-\	2E-/	4C\	.
4FF/	.	.	4AA-\	.
4GGn/	.	4E-/)	4BB-\	.
=58	=58	=58	=58	=58
*	*	*ped	*	*
!	!	!	!	!LO:DY:t=pppp.
2.AA-;/	2.DD-\	2.F;/	2.D-\	pppp
.	.	.	.	.
*	*	*Xped	*	*
.	.	.	.	.
=59	=59	=59	=59	=59
!	!	!LO:TX:a:i:t=piu lento.	!	!
2.AA-/	4GG-\	(4E-/	4C\	.
.	4FF\	4D-/	2D-\	.
.	4EE-\	8G-/L	.	.
.	.	8F/J	.	.
=60	=60	=60	=60	=60
2AA-/	2AA-\	4E-/	2C\	.
.	.	4A-/	.	.
4AA-\	4ryy	4c/	4G-\	.
*v	*v	*	*	*
=61	=61	=61	=61
4BB-\	4d-/	4F\	.
4D-\	4Gn/)	4.F-X\	.
4BB-\	(4G/	.	.
.	.	16E-\LL	.
.	.	16D-\JJ	.
=62	=62	=62	=62
2.AA-/	2.A-/	4Fn\ 4D-\	.
.	.	4D-\ 4BB-\	.
.	.	4E-\ 4C\	.
=63	=63	=63	=63
4C/ 4AA-/	4g-/	[2.A-\	.
4D-/ 4BB-/	4f/	.	.
4E-/ 4C/	4e-/	.	.
=64	=64	=64	=64
!	!LO:TX:b:i:t=ralent.	!	!
4F\ 4D-\	4d-/	2.A-\]	>
4G-\ 4E-\	4c/	.	.
4A-\ 4F\)	4c-X/	.	.
=65	=65	=65	=65
*^	*	*	*
4Dn/	(4Dn\	4B-/	2.F\	.
4E-/	4AAn\	4.c-X/	.	.
4D/	4BB-\	.	.	.
.	.	8B-/	.	.
=66	=66	=66	=66	=66
!	!	!	!	!LO:DY:t=pppp.
*	*	*ped	*	*
2.AA-X;/	2.DDn\	2.B-;/)	2.F\	pppp
.	.	.	.	.
*	*	*Xped	*	*
.	.	.	.	.
!!LO:PB:g=original
=67	=67	=67	=67	=67
4AA-/	(2.DDn\)	(4c-X/	2.F\	.
4BB-/	.	4B-/	.	.
4C-X/	.	4A-/	.	.
*v	*v	*	*	*
=68	=68	=68	=68
4BB-/ 4DD-X/	2Gn/)	2.F-X\	.
4Cn/ 4CC/	.	.	.
4D-X/ 4BBB-/	(4G/	.	.
=69	=69	=69	=69
2.C/ 2.AAAn/	4G-X/	2.E-\	.
.	4.e-/	.	.
.	8G-/	.	.
=70	=70	=70	=70
4C-X/ 4AAA-X/	2.F/	2.Dn\	.
4BB-/ 4BBB-/	.	.	.
[4AA-/ 4CC-X/	.	.	.
=71	=71	=71	=71
*^	*	*	*
2.AA-/_	4CCn\	4G-/	4E-\	.
.	4DD-\	4F/	4D-X\	.
.	4GG-\	4E-/	4C\	.
=72	=72	=72	=72	=72
!	!	!LO:TX:b:i:t=ralent.	!	!
4AA-/]	4FF\	4A-/	2.D-\	>
4GG-/	4GG-\	4B-/	.	.
4BB-/	4BB-\	4d-/	.	.
=73	=73	=73	=73	=73
[2AA-/	2AA-\	2F/	2D-\	.
8AA-/L]	[4AAA-\	4E-/	4C-\	.
8GG-X/J	.	.	.	.
=74	=74	=74	=74	=74
!	!LO:TX:t=P:problem:brak początku łuku	!	!	!LO:DY:t=pppp.
2.FF;/)	(<2.AAA-\]	2.Dn;/)	2.BB-\	pppp
*v	*v	*	*	*
!!LO:LB:g=original
=75	=75	=75	=75
!	!LO:TX:a:i:t=ancora piu lento	!	!
4EE-/ 4AAAn/	(4G-/	4C\	.
4DD-/ 4BBB-/	4F/	4D-X\	.
4GG-X/ 4CC/	4E-/	4AAn\	.
=76	=76	=76	=76
*^	*	*	*
!LO:TX:a:i:t=alargando	!	!	!	!
4FF/	4DDn/	4A-/	4C-X\	.
!	!	!	!	!LO:HP:t=diminuendo.
2GGn/	4DD-X\	4B-/	2En\	>
.	8CC\L	4d-/	.	.
.	8BBB-\J	.	.	.
*v	*v	*	*	*
=77	=77	=77	=77
*	*	*ped	*
2.AA-/ [2.AAA-/	2.F/	2.D-\	.
.	.	.	.
*	*	*Xped	*
.	.	.	.
=78	=78	=78	=78
.	8qF/	.	.
*	*	*ped	*
*^	*	*	*
N(2.AA-/	4AAA-\]	[2E-/	[2C\	.
.	2GGG-\	.	.	.
.	.	8.E-/L]	8.C\L]	.
*	*	*Xped	*	*
.	.	.	.	.
.	.	16D-/Jk	16D-\Jk	.
*	*	*v	*v	*
=79	=79	=79	=79
*	*	*ped	*
!	!LO:TX:b:i:t=Wysokim talentem Pani podjęta i to dobre będzie!!!\nStanisław Moniuszko.	!	!LO:DY:t=ppppp.
2.FF;/	2.AAA-\ 2.FFF\)	2.D-/ 2.AA-N/) 2.DD-;/)	ppppp
*v	*v	*	*
==	==	==
*-	*-	*-
!!!system-decoration: {(s1,s2)}
!!!ENC: Tomasz Grochalski
!!!END: 2021-08-17
!!!RDF**dynam: ppp = ppp.
!!!RDF**dynam: > = dimin.
!!!RDF**kern: > = above
!!!RDF**kern: < = below
!!!RDF**kern: N = linked
!!!EED: Andrzej Borzym
!!!EST: 2021-09-22
